!!!COM: Music21
!!!OTL: Valse de Escornabois
!!!OMV: pezas_valses_valse-de-escornabois_valse-de-escornabois-partitura.musicxml
**kern
*I"Bagpipes
*I'Bag
*clefG^2
*k[]
*M3/4
=1
!LO:TX:a:t=Allegro
*MM132
!LO:TX:a:t=[quarter]=132
4cc
4dd
4ee
=
4ff
4ee
4dd
=
2ee
4dd
=
[2.cc
=
2.cc]
=
4cc
4dd
4ee
=
4gg
4ff
4ee
=
2ff
4ee
=
[2.dd
=
2.dd]
=
4dd
4ee
4ff
=
4gg
4aa
4bb
!!linebreak:original
=
4gg
4ee
4cc
!!linebreak:original
=
4ee
4gg
4ee
=
4ff
4dd
4b
=
4ff
4ee
4dd
=
[2.cc
=
2.cc]
=||
*M3/4
!LO:TX:a:t=Allegro
*MM132
!LO:TX:a:t=[quarter]=132
4cc
4dd
4ee
=
4ff
4ee
4dd
=
2ee
4dd
=
[2.cc
=
2.cc]
=
4cc
4dd
4ee
!!linebreak:original
=
4gg
4ff
4ee
=
2ff
4ee
=
[2.dd
=
2.dd]
=
4dd
4ee
4ff
=
4gg
4aa
4bb
=
4gg
4ee
4cc
!!linebreak:original
=
4ee
4gg
4ee
=
4ff
4dd
4b
=
4ff
4ee
4dd
=
[2.cc
=
2cc]
4ee
=||
2ff
4ee
=
4dd
4ee
4ff
=
2ee
4dd
=
4cc
4dd
4ee
=
2dd
4cc
=
4b
4cc
4dd
!!linebreak:original
=
2ee
4dd
=
2cc
4ee
=
2ff
4ee
=
4dd
4ee
4ff
=
2ee
4dd
=
4cc
4dd
4ee
=
2dd
4cc
=
4b
4cc
4dd
=
[2.cc
=
2cc]
4ee
=||
2ff
4ee
=
4dd
4ee
4ff
=
2ee
4dd
!!linebreak:original
=
4cc
4dd
4ee
=
2dd
4cc
=
4b
4cc
4dd
!!linebreak:original
=
2ee
4dd
=
2cc
4ee
=
2ff
4ee
=
4dd
4ee
4ff
=
2ee
4dd
=
4cc
4dd
4ee
=
2dd
4cc
=
4b
4cc
4dd
=
[2.cc
=
4cc]
2r
==
*-
